X: 121
T: Miss Boswell's Reel
C: attr. John French (1753-1803)
R: reel
B: "John French Collection", John French ed. p.12 #1
S: http://www.heallan.com/french.asp
Z: 2012 John Chambers <jc:trillian.mit.edu>
M: C
L: 1/8
K: D
f | d2(AF) (TEDE).F | DA,DF AdAF | AfdF (TEDE).F | d(BTAF) A2-A :|
f | dAaf TedBe | dAaf bgaf |[1 (d/e/f/g/ a).f edBe | d(BTAF) A2-Af :|\
[2 gbfa TedBe | d(BTAF) A2-A |]

%%sep 2 1 500
%%sep 1 1 500

